!!!!SEGMENT: pl-sa--4-a-i-4_cramer-johann-baptist--variations.krn
!!!cenid: 18xx:359
!!!COM: Cramer, Johann Baptist
!!!COM-rismID: pe71536
!!!CDT: 1771/02/24-1858/04/16
!!!CNT: English; German
!!!OTL: Variations
!!!PDT:
!!!AGN: Secular; Variations
!!!YEC: Copyright 2022 Narodowy Instytut Fryderyka Chopina (https://polishscores.org)
!!!YEM: License CC-BY-4.0 (https://creativecommons.org/licenses/by/4.0)
!!!SMS-siglum: PL-SA
!!!SMS-shelfmark: 4/A I 4
!!!SMS-shelfwork: W
!!!SMS-variant:
!!!SMS-altvar:
!!!NIFC-rismSourceID: 1001065336
!!!NIFC-rismChildID: 1001065336
!!!NIFC-islandoraID: none
!!!URL-pdf-islandora:
!!!URL-scan: https://bc.bdsandomierz.pl/dlibra/publication/1270/edition/1238/content @EN{Scan in the Sandomierz Diocese Digital Library} @PL{Skany w portalu Cyfrowa Biblioteka Diecezjalna w Sandomierzu}
!!!IIIF:
!!!ONB-nifc:
!!!AIN: 2 cemba
!!!key:
**kern	**kern	**dynam
*part2	*part1	*
*staff2	*staff1	*
*Icemba	*Icemba	*
*I"Cembalo	*I"Cembalo	*
*clefF4	*clefG2	*
*k[f#]	*k[f#]	*
*G:	*G:	*
*M6/8	*M6/8	*
*>[A,A,B,B,C]	*>[A,A,B,B,C]	*
*>A	*>A	*
!	!LO:TX:a:t=Aria Con Variatione	!
8r	8d/	.
=1	=1	=1
*^	*	*
4B/	4.G\	4g/	.
8d/	.	8b/	.
4c/	4.D\	4a/	.
8d/	.	8b/	.
=2	=2	=2	=2
4B/	4.G\	4g/	.
8c/	.	8a/	.
4B/	4.G\	4g/	.
8d/	.	8f#/	.
=3	=3	=3	=3
.	.	8qf#/	.
4c/	4.G\	4e/	.
8B/	.	8d/	.
4c/	4.D\	4e/	.
8B/	.	8f#/	.
=	=	=	=
4B/	4G\	4g/	.
8B/	8G\	8g/	.
4B/	4G\	4g/	.
*v	*v	*	*
=4:|!|:	=4:|!|:	=4:|!|:
*>B	*>B	*
8r	8d/	.
=5	=5	=5
*^	*	*
4d/	4G\	4b\	.
8d/	8G\	8b\	.
.	.	8qcc/	.
[4.d/	8G\L	8b\L	.
.	8F#\	8a\	.
.	8G#X\J	8b\J	.
=6	=6	=6	=6
.	.	8qdd/	.
4d/]	4A\	4cc\	.
8d/	8A\	8cc\	.
4.d/	4A\	4cc\	.
.	8F#\	8a\	.
=7	=7	=7	=7
8G/L	4.G\	8b\L	.
8A/	.	8cc\	.
[<8B/J	.	8dd\J	.
8B/L]	4.C\	8dd\L	.
8A/	.	8cc\	.
8G/J	.	8b\J	.
!LO:LB:g=original	!	!LO:LB:g=original	!
=8	=8	=8	=8
*	*2\right	*	*
8r	2.D\	4.b 4.g/	.
8c#X/	.	.	.
4d/	.	.	.
.	.	4a 4f#/	.
8cn/L	.	.	.
!	!	!LO:TX:a:t=t	!
!	!	!LO:TX:a:t=P:problem=niejednoznaczny zapis ozdobnika [przyjęto trillo]&colon;global	!
8A/J	.	8d/	.
=9	=9	=9	=9
4B/	4.G\	4g/	.
8d/	.	8b/	.
4c/	4.D\	4a/	.
8d/	.	8b/	.
=10	=10	=10	=10
4B/	4.G\	4g/	.
8c/	.	8a/	.
4B/	4.G\	4g/	.
8d/	.	8f#/	.
=11	=11	=11	=11
.	.	8qf#/	.
4c/	4.G\	4e/	.
8B/	.	8d/	.
!	!LO:N:vis=4	!	!
4c/	4.D\	4e/	.
8A/	.	8f#/	.
=	=	=	=
4B/	4G\	4g/	.
!LO:N:vis=4	!	!	!
8B/	8G\	8g/	.
4B/	4G\	4g/	.
*v	*v	*	*
=12:|!;	=12:|!;	=12:|!
*clefG2	*	*
*k[f#]	*k[f#]	*
*M6/8	*M6/8	*
*>C	*>C	*
!	!	!LO:DY:t=f&colon;
!	!LO:TX:a:t=Var&colon; 1mo&colon;	!
8ryy	8dd\	f
=13	=13	=13
*^	*	*
4g 4G/	4rFyy	16gg\LL	.
.	.	16dd\	.
.	.	16gg\	.
.	.	16bb\	.
8d/	8rcyy	16ddd\	.
.	.	16bb\JJ	.
4f#/	4.c\	16gg#X\LL	.
.	.	8qbb/	.
.	.	16aa\	.
.	.	16ggn\	.
.	.	16ff#\	.
8d/	.	16ee\	.
.	.	16dd\JJ	.
*v	*v	*	*
=14	=14	=14
8g 8d 8B/	16gg\LL	.
.	16dd\	.
4r	16ddd\	.
.	16ccc\	.
.	16bb\	.
.	16aa\JJ	.
8r	16gg\LL	.
.	16ffn\	.
8g#XL 8d 8B/	16ee\	.
.	16dd\	.
8g#J 8d 8B/	16cc\	.
.	16b\JJ	.
=15	=15	=15
4e 4c/	16dd\LL	.
.	16cc\	.
.	16ee\	.
.	16cc\	.
8r	16b\	.
.	16a\JJ	.
8r	16g/LL	.
.	16f#/	.
*clefF4	*	*
8cL 8A 8D\	16a/	.
.	16d/	.
8cJ 8A 8D\	16e/	.
.	16f#/JJ	.
=16	=16	=16
4B 4G\	16g/LL	.
.	16b/	.
.	16dd/	.
.	16b/	.
8c 8A 8D\	16a/	.
.	16b/JJ	.
4B 4G\	4g/	.
8r	8dd\	.
*clefG2	*	*
=17	=17	=17
*^	*	*
4g 4G/	4rFyy	16gg\LL	.
.	.	16dd\	.
.	.	16gg\	.
.	.	16bb\	.
8d/	8rcyy	16ddd\	.
.	.	16bb\JJ	.
4f#/	4.c\	16gg#X\LL	.
.	.	8qbb/	.
.	.	16aa\	.
.	.	16ggn\	.
.	.	16ff#\	.
8d/	.	16ee\	.
.	.	16dd\JJ	.
*v	*v	*	*
=18	=18	=18
8g 8d 8B/	16gg\LL	.
.	16dd\	.
4r	16ddd\	.
.	16ccc\	.
.	16bb\	.
.	16aa\JJ	.
8r	16gg\LL	.
.	16ffn\	.
8g#XL 8d 8B/	16ee\	.
.	16dd\	.
8g#J 8d 8B/	16cc\	.
.	16b\JJ	.
!LO:LB:g=original	!LO:LB:g=original	!
=19	=19	=19
4e 4c/	16dd\LL	.
.	16cc\	.
.	16ee\	.
.	16cc\	.
8r	16b\	.
.	16a\JJ	.
8r	16g/LL	.
.	16f#/	.
*clefF4	*	*
8cL 8A 8D\	16a/	.
.	16d/	.
8cJ 8A 8D\	16e/	.
.	16f#/JJ	.
=20	=20	=20
4B 4G\	16g/LL	.
.	16b/	.
.	16dd/	.
.	16b/	.
8c 8A 8D\	16a/	.
.	16b/JJ	.
4B 4G\	4g/	.
8r	8dd\	.
*clefG2	*	*
=21	=21	=21
*^	*	*
8r	2.d\	16ddd\LL	.
.	.	16dd\	.
8bL 8g#X/	.	16ddd\	.
.	.	16ccc\	.
8ccJ 8a/	.	16bb\	.
.	.	16aa\JJ	.
4.dd 4.b\	.	16gg#X\LL	.
.	.	16aa\	.
.	.	16bb\	.
.	.	16ee\	.
.	.	16ff#\	.
.	.	16gg#\JJ	.
=22	=22	=22	=22
!	!LO:N:vis=2	!	!
8r	2.d\	16aa\LL	.
.	.	16dd\	.
8aL 8f#/	.	16ccc\	.
.	.	16bb\	.
8bJ 8gn/	.	16aa\	.
.	.	16ggn\JJ	.
4.cc 4.a/	.	16ff#\LL	.
.	.	16gg\	.
.	.	16aa\	.
.	.	16dd\	.
.	.	16ee\	.
.	.	16ff#\JJ	.
*v	*v	*	*
=23	=23	=23
4b 4g/	16gg\LL	.
.	16ff#\	.
.	16gg\	.
.	16gg#X\	.
8r	16aa\	.
.	16aa#X\JJ	.
4r	16bb\LL	.
.	16ccc\	.
.	16ccc#X\	.
.	16ddd\	.
8gg 8ee 8a\	16eee\	.
.	16ccc#\JJ	.
=24	=24	=24
4ff# 4dd\	16ddd\LL	.
.	16aa\	.
.	16gg#X\	.
.	16aa\	.
8gg 8ee 8a\	16eee\	.
.	16ccc#X\JJ	.
4ff# 4dd\	16ddd\LL	.
.	16aa\	.
.	16ddd\	.
.	16cccn\	.
8r	16bb\	.
.	16aa\JJ	.
!LO:PB:g=original	!LO:PB:g=original	!
=25	=25	=25
*^	*	*
!LO:N:vis=4.	!	!	!
4g 4G/	4rFyy	16gg\LL	.
.	.	16ff#\	.
.	.	16gg\	.
.	.	16aa\	.
8d/	8rAyy	16bb\	.
.	.	16gg\JJ	.
4f#/	4.c\	16aa\LL	.
.	.	16dd\	.
.	.	16ddd\	.
.	.	16ccc\	.
8d/	.	16bb\	.
.	.	16aa\JJ	.
*v	*v	*	*
=26	=26	=26
8g 8d 8B/	16gg\LL	.
.	16ff#\	.
8r	16bb\	.
.	16aa\	.
8r	16gg\	.
.	16ff#X\JJ	.
8r	16ee\LL	.
.	16dd\	.
8fnL 8d 8B/	16cc\	.
.	16b\	.
8fJ 8d 8B/	16a\	.
.	16g#X\JJ	.
=27	=27	=27
8e 8c/	16b/LL	.
.	16a/	.
4r	16cc/	.
.	16b/	.
.	16a/	.
.	16gn/JJ	.
8r	16f#/LL	.
.	16g/	.
*clefF4	*	*
8cL 8A 8D\	16a/	.
.	16d/	.
8cJ 8A 8D\	16e/	.
.	16f#/JJ	.
=28	=28	=28
4B 4G\	16g/LL	.
.	16b/	.
.	16dd/	.
.	16b/	.
8c 8A 8D\	16a/	.
.	16b/JJ	.
4B 4G\	4g/	.
8r	8dd\	.
*clefG2	*	*
=29	=29	=29
*^	*	*
8r	2.d\	16ddd\LL	.
.	.	16dd\	.
8bL 8g#X/	.	16ddd\	.
.	.	16ccc\	.
8ccJ 8a/	.	16bb\	.
.	.	16aa\JJ	.
4.dd 4.b\	.	16gg#X\LL	.
.	.	16aa\	.
.	.	16bb\	.
.	.	16ee\	.
.	.	16ff#\	.
.	.	16gg#\JJ	.
=30	=30	=30	=30
8r	2.d\	16aa\LL	.
.	.	16dd\	.
8aL 8f#/	.	16ccc\	.
.	.	16bb\	.
8bJ 8gn/	.	16aa\	.
.	.	16ggn\JJ	.
4.cc 4.a\	.	16ff#\LL	.
.	.	16gg\	.
.	.	16aa\	.
.	.	16dd\	.
.	.	16ee\	.
.	.	16ff#\JJ	.
*v	*v	*	*
!LO:LB:g=original	!LO:LB:g=original	!
=31	=31	=31
4b 4g/	16gg\LL	.
.	16ff#\	.
.	16gg\	.
.	16gg#X\	.
8r	16aa\	.
.	16aa#X\JJ	.
4r	16bb\LL	.
.	16ccc\	.
.	16ccc#X\	.
.	16ddd\	.
8gg 8ee 8a\	16eee\	.
.	16ccc#\JJ	.
=32	=32	=32
4ff# 4dd\	16ddd\LL	.
.	16aa\	.
.	16gg#X\	.
.	16aa\	.
8gg 8ee 8a\	16eee\	.
.	16ccc#X\JJ	.
8ff# 8dd\	16ddd\LL	.
.	16aa\	.
8r	16ddd\	.
.	16cccn\	.
8r	16bb\	.
.	16aa\JJ	.
=33	=33	=33
*^	*	*
!	!	!LO:TX:a:t=t	!
4g 4G/	4rFyy	16gg\LL	.
.	.	16ff#\	.
.	.	16gg\	.
.	.	16aa\	.
8d/	8rAyy	16bb\	.
.	.	16gg\JJ	.
4f#/	4.c\	16aa\LL	.
.	.	16dd\	.
.	.	16ddd\	.
.	.	16ccc\	.
8d/	.	16bb\	.
.	.	16aa\JJ	.
*v	*v	*	*
=34	=34	=34
8g 8d 8B/	16gg\LL	.
.	16ff#\	.
4r	16bb\	.
.	16aa\	.
.	16gg\	.
.	16ff#\JJ	.
8r	16ee\LL	.
.	16dd\	.
8fnL 8d 8B/	16cc\	.
.	16b\	.
8fJ 8d 8B/	16a\	.
.	16g#X\JJ	.
=35	=35	=35
4e 4c/	16b/LL	.
.	16a/	.
.	16cc/	.
.	16b/	.
8r	16a/	.
.	16gn/JJ	.
8r	16f#/LL	.
.	16g/	.
*clefF4	*	*
8cL 8A 8D\	16a/	.
.	16d/	.
8cJ 8A 8D\	16e/	.
.	16f#/JJ	.
=	=	=
!LO:N:vis=8	!	!
4B 4G\	16g/LL	.
.	16b/	.
.	16dd/	.
.	16b/	.
8c 8F# 8D\	16a/	.
.	16b/JJ	.
4B 4G\	4g/	.
!LO:LB:g=original	!LO:LB:g=original	!
=36||;	=36||;	=36||
!LO:CL:ed	!	!
*clefG2	*	*
*k[f#]	*k[f#]	*
*M6/8	*M6/8	*
!	!LO:TX:a:t=Vari&colon; 2do&colon;	!
!LO:TX:a:t=P:problem=niewłaściwy klucz F4 [przyjęto G2]	!LO:TX:a:t=t	!
8r	8dd\	.
=37	=37	=37
*	*^	*
8r	4gg/	8r	.
8b/L	.	4dd\	.
8g/J	8bb/	.	.
8cc/L	4aa/	8dd\L	.
8a/	.	8ee\	.
8dd/J	8bb/	8ff#\J	.
=38	=38	=38	=38
*^	*	*	*
8b/L	[4.b\	4gg/	4gg\	.
8dd/	.	.	.	.
8ff#/J	.	8aa\	2reyy	.
8gg/L	4.b\]	8bb\L	.	.
8aa/	.	8ccc\	.	.
8bb/J	.	[8ddd\J	.	.
*	*	*v	*v	*
=39	=39	=39	=39
8bb/L	4.cc\	8ddd\L]	.
8aa/	.	8ccc\	.
8gg/J	.	8bb\J	.
!	!	!LO:TX:a:t=t	!
8ff#/L	4.dd\	8aa\L	.
8ee/	.	8gg\	.
8ff#/J	.	8aa\J	.
=40	=40	=40	=40
8gg/L	4.g\	8aa#X\L	.
8dd/	.	8bb\	.
8cc/J	.	8aan\J	.
8b/	8g\	8gg\L	.
8r	8ryy	8dd\	.
8r	8ryy	8dd\J	.
*v	*v	*	*
=41	=41	=41
*	*^	*
8r	4gg/	8r	.
8b/L	.	[>4dd\	.
8g/J	8bb/	.	.
8cc/L	4aa/	8dd\L]	.
8a/	.	8ee\	.
8dd/J	8bb/	8ff#\J	.
=42	=42	=42	=42
*^	*	*	*
8b/L	[4.b\	4gg/	4gg\	.
8dd/	.	.	.	.
8ff#/J	.	8aa\	2reyy	.
8gg/L	4.b\]	8bb\L	.	.
8aa/	.	8ccc\	.	.
8bb/J	.	[8ddd\J	.	.
*	*	*v	*v	*
=43	=43	=43	=43
8bb/L	4.cc\	8ddd\L]	.
8aa/	.	8ccc\	.
8gg/J	.	8bb\J	.
!	!	!LO:TX:a:t=t	!
8ff#/L	4.dd\	8aa\L	.
8ee/	.	8gg\	.
8ff#/J	.	8aa\J	.
=44	=44	=44	=44
8gg/L	4.g\	8aa#X\L	.
8dd/	.	8bb\	.
8cc/J	.	8aan\J	.
8b/	8g\	8gg\L	.
8r	8ryy	8dd\	.
8r	8ryy	8dd\J	.
=45	=45	=45	=45
4raa	8r	4ddd\	.
.	[4dd\	.	.
8aa/	.	8ccc\	.
!	!	!LO:TX:a:t=t	!
8gg#X/L	4.dd\]	8bb\L	.
8ff#/	.	8aa\	.
8gg#/J	.	8bb\J	.
*clefG2	*	*	*
=46	=46	=46	=46
4aa/	[2.dd\	8ccc\L	.
.	.	8ddd\	.
8ggn/	.	8eee\J	.
8ff#/L	.	4aa\	.
8ee/	.	.	.
8dd/J	.	(8ccc\	.
=47	=47	=47	=47
8gg/L	4.dd\]	8bb\L	.
8ff#/	.	8ddd\	.
8ee/J	.	8gg\J	.
8dd/L	8ryy	8bb\L)	.
8cc/	4ryy	8ee\	.
8b/J	.	8gg\J	.
*v	*v	*	*
=48	=48	=48
8a/L	8cc\L	.
8f#/	8ccc 8aa\	.
8g/J	8bbJ 8gg\	.
!LO:TX:a:t=P:problem=mixed beam	!	!
8dd\L	8bbL 8gg\	.
8d/J	8aa 8ff#\	.
8r	8dd\J	.
!LO:LB:g=original	!LO:LB:g=original	!
=49	=49	=49
*	*^	*
8r	4gg/	8r	.
8b/L	.	[4dd\	.
8g/J	8bb/	.	.
8cc/L	4aa/	8dd\L]	.
8a/	.	8ee\	.
8dd/J	8bb/	8ff#\J	.
*	*v	*v	*
=50	=50	=50
*^	*	*
8b/L	[4.b\	4gg\	.
8dd/	.	.	.
8ff#/J	.	8aa\	.
8gg/L	4.b\]	8bb\L	.
8aa/	.	8ccc\	.
8bb/J	.	[8ddd\J	.
=51	=51	=51	=51
8bb/L	4.cc\	8ddd\L]	.
8aa/	.	8ccc\	.
8gg/J	.	8bb\J	.
!	!	!LO:TX:a:t=t	!
8ff#/L	4.dd\	8aa\L	.
8ee/	.	8gg\	.
8ff#/J	.	8aa\J	.
=52	=52	=52	=52
!	!	!LO:SIC:v:o=8aa\L	!
8gg/L	4.g\	8aa#	.
8dd/	.	8bb\	.
8cc/J	.	8aan\J	.
8b/	8g\	8gg\L	.
8r	8ryy	8dd\	.
8r	8ryy	8dd\J	.
=53	=53	=53	=53
4raa	8r	4ddd\	.
.	4dd\	.	.
8aa/	.	8ccc\	.
!	!	!LO:TX:a:t=t	!
8gg#X/L	4.dd\	8bb\L	.
8ff#/	.	8aa\	.
8gg#/J	.	8bb\J	.
=54	=54	=54	=54
4aa/	2.dd\	8ccc\L	.
.	.	8ddd\	.
8ggn/	.	8eee\J	.
(<8ff#/L	.	4aa\	.
8ee/	.	.	.
8dd/J)	.	8ccc\	.
*v	*v	*	*
=55	=55	=55
8gg\L	(8bb\L	.
8ff#\	8ddd\	.
8ee\J	8gg\J	.
8dd\L	8bb\L	.
8cc\	8ee\	.
8b\J	8gg\J)	.
=56	=56	=56
8a/L	8cc\L	.
8f#/	8ccc 8aa\	.
8g/J	8bbJ 8gg\	.
!LO:TX:a:t=P:problem=mixed beam	!	!
8dd\L	8bbL 8gg\	.
8d/J	8aa 8ff#\	.
8r	8dd\J	.
=57	=57	=57
*	*^	*
8r	4gg/	8r	.
8b/L	.	4dd\	.
8g/J	8bb/	.	.
8cc/L	4aa/	8dd\L	.
8a/	.	8ee\	.
8dd/J	8bb/	8ff#\J	.
*	*v	*v	*
=58	=58	=58
*^	*	*
8b/L	4.b\	4gg\	.
8dd/	.	.	.
8ff#/J	.	8aa\	.
8gg/L	4.b\	8bb\L	.
8aa/	.	8ccc\	.
8bb/J	.	[8ddd\J	.
=59	=59	=59	=59
8bb/L	4.cc\	8ddd\L]	.
8aa/	.	8ccc\	.
8gg/J	.	8bb\J	.
!	!	!LO:TX:a:t=t	!
8ff#/L	4.dd\	8aa\L	.
8ee/	.	8gg\	.
8ff#/J	.	8aa\J	.
=60	=60	=60	=60
8gg/L	4.g\	8aa#X\L	.
8dd/	.	8bb\	.
8cc/J	.	8aan\J	.
4b/	4g\	4gg\	.
8r	8ryy	8r	.
*v	*v	*	*
!LO:PB:g=original	!LO:PB:g=original	!
=61||;	=61||;	=61||
*clefF4	*	*
*k[f#]	*k[f#]	*
*M6/8	*M6/8	*
!	!LO:TX:a:t=Var&colon; 3to&colon;	!
!	!LO:TX:a:t=t	!
8r	8dd\	.
=62	=62	=62
*^	*^	*
16g/LL	4G\	[4gg [>4b\	4reyy	.
16f#/	.	.	.	.
16e/	.	.	.	.
16d/	.	.	.	.
16c/	8r	8bb 8gg] 8b\]	8reyy	.
16B/JJ	.	.	.	.
16c\LL	8rBByy	4aa/	8gg\L	.
16B\	.	.	.	.
16c\	4rBByy	.	8ee\	.
16c#X\	.	.	.	.
16d\	.	8bb/	8ff#\J	.
16d#X\JJ	.	.	.	.
*v	*v	*	*	*
*	*v	*v	*
=63	=63	=63
16e/LL	4gg 4b 4g/	.
16E/	.	.
16e/	.	.
16d#X/	.	.
16e/	8aa 8cc 8a/	.
16d#/JJ	.	.
16e\LL	4gg [>4b 4g/	.
(>16E\	.	.
16F#\	.	.
16G\	.	.
16A\	(>8ff# 8dd 8b/]	.
16B\JJ	.	.
=64	=64	=64
*	*^	*
!	!LO:TX:a:t=P:problem=niejednoznaczny zapis łuk/ligatura [przyjęto ligatura]	!	!
16c\LL	[4.ee/)	8b\L	.
16B\	.	.	.
16c\	.	8a\	.
16A\	.	.	.
16B\	.	8g\J	.
16c\JJ	.	.	.
!LO:TX:a:t=P:problem=mixed beam	!	!	!
16d\LL	8ee/L]	8f#\L	.
16C#X/	.	.	.
16D/	8dd/	8g\	.
16E/	.	.	.
16F#/	8ccn/J	8a\J	.
16D/JJ	.	.	.
*	*v	*v	*
=65	=65	=65
16G\LL	8d/L	.
16D\	.	.
16Cn\	8b 8g/	.
16BB\	.	.
16C\	8aJ 8f#/	.
16D\JJ	.	.
4GG/)	8g/	.
.	8r	.
!	!LO:TX:a:t=t	!
8r	8dd\	.
=66	=66	=66
*^	*^	*
16g/LL	4G\	[4gg/	4gg [>4b\	.
16f#/	.	.	.	.
16e/	.	.	.	.
16d/	.	.	.	.
16c/	8r	8bb 8gg/_	8b\]	.
16B/JJ	.	.	.	.
16c\LL	8rBByy	4aa/	8gg\L]	.
16B\	.	.	.	.
16c\	4rBByy	.	8ee\	.
16c#X\	.	.	.	.
16d\	.	8bb/	8ff#\J	.
16d#X\JJ	.	.	.	.
*	*	*v	*v	*
!LO:LB:g=original	!LO:LB:g=original	!LO:LB:g=original	!
=67	=67	=67	=67
16e/LL	16ryy	4gg 4b 4g/	.
16E/	4E\	.	.
16e/	.	.	.
16d#X/	.	.	.
16e/	.	8aa 8cc 8a/	.
16d#/JJ	16ryy	.	.
16e\LL	8ryy	4gg 4b 4g/	.
16E\	.	.	.
16F#\	4ryy	.	.
16G\	.	.	.
16A\	.	8ff# 8dd 8b/	.
16B\JJ	.	.	.
*v	*v	*	*
=68	=68	=68
*	*^	*
!	!LO:TX:a:t=P:problem=niejednoznaczny zapis łuk/ligatura [przyjęto ligatura]	!	!
16c\LL	[4.ee/	8b\L	.
16B\	.	.	.
16c\	.	8a\	.
16A\	.	.	.
16B\	.	8g\J	.
16c\JJ	.	.	.
!LO:TX:a:t=P:problem=mixed beam	!	!	!
16d\LL	8ee/L]	8f#\L	.
16C#X/	.	.	.
16D/	8dd/	8g\	.
16E/	.	.	.
16F#/	8cc/J	8a\J	.
16D/JJ	.	.	.
*	*v	*v	*
=69	=69	=69
16G/LL	8d/L	.
16D/	.	.
16C/	8b 8g/	.
16BB/	.	.
16C/	8aJ 8f#/	.
16D/JJ	.	.
4GG/	8g/	.
.	8r	.
!	!LO:TX:a:t=t	!
8r	8d/	.
=70	=70	=70
16r	4b 4g/	.
16c#X\LL	.	.
16d\	.	.
16cn\	.	.
16B\	8b 8g/	.
16A\JJ	.	.
16G/LL	8bL 8g/	.
16D/	.	.
16C/	8a 8f#/	.
16BB/	.	.
16AA/	8bJ 8g/	.
16GG/JJ	.	.
=71	=71	=71
16FF#/LL	4cc 4a/	.
16GG/	.	.
16AA/	.	.
16AA#X/	.	.
16BB/	8cc 8a/	.
16C/JJ	.	.
16C#X/LL	4cc 4a/	.
16D/	.	.
16D#X/	.	.
16E/	.	.
16E#X/	8r	.
16F#/JJ	.	.
=72	=72	=72
16G\LL	8bL 8g/	.
16F#\	.	.
16En\	8cc 8a/	.
16D\	.	.
16C\	[8ddJ [8b/	.
16BB\JJ	.	.
16C\LL	8dd]L 8b/]	.
16BB\	.	.
16C\	8cc 8a/	.
16D\	.	.
16E\	8bJ 8g/	.
16C#X\JJ	.	.
!LO:LB:g=original	!LO:LB:g=original	!
=73	=73	=73
!LO:TX:a:t=P:problem=mixed beam	!	!
16D\LL	4a 4f#/	.
16DD/	.	.
16D\	.	.
16E\	.	.
16F#\	8a 8f#/	.
16G\JJ	.	.
16A\LL	4a 4f#/	.
16B\	.	.
16c\	.	.
16d\	.	.
16e\	8r	.
16f#\JJ	.	.
=74	=74	=74
*^	*^	*
16g/LL	4G\	[4gg/	[>4b\	.
16f#/	.	.	.	.
16e/	.	.	.	.
16d/	.	.	.	.
16c/	4ryy	8bb 8gg/]	8b\]	.
16B/JJ	.	.	.	.
16c\LL	.	4aa/	8gg\L	.
16B\	.	.	.	.
16c\	4rBByy	.	8ee\	.
16c#X\	.	.	.	.
16d\	.	8bb/	8ff#\J	.
16d#X\JJ	.	.	.	.
*	*	*v	*v	*
=75	=75	=75	=75
16e/LL	16ryy	4gg 4b 4g/	.
16E/	4E\	.	.
16e/	.	.	.
16d#X/	.	.	.
16e/	.	8aa 8cc 8a/	.
16d#/JJ	16ryy	.	.
!	!	!LO:S:s=1:note:problem=note-level slur	!
16e\LL	8rGGyy	(>4gg [>4b 4g/	.
16E\	.	.	.
16F#\	4rEEyy	.	.
16G\	.	.	.
16A\	.	8ff# 8dd 8b/])	.
16B\JJ	.	.	.
*v	*v	*	*
=76	=76	=76
*	*^	*
!	!LO:TX:a:t=P:problem=niejednoznaczny zapis łuk/ligatura [przyjęto ligatura]	!	!
16c\LL	[4.ee/	8b\L	.
16B\	.	.	.
16c\	.	8a\	.
16A\	.	.	.
16B\	.	8g\J	.
16c\JJ	.	.	.
!LO:TX:a:t=P:problem=mixed beam	!	!	!
16d\LL	8ee/L]	8f#\L	.
16C#X/	.	.	.
16D/	8dd/	8g\	.
16E/	.	.	.
16F#/	8cc/J	8a\J	.
16D/JJ	.	.	.
*	*v	*v	*
=77	=77	=77
16G\LL	8d/L	.
16D\	.	.
16Cn\	8b/	.
16BB\	.	.
16C\	8aJ 8f#/	.
16D\JJ	.	.
4GG/	4g/	.
!	!LO:TX:a:t=t	!
8r	8d/	.
=78	=78	=78
16r	4b 4g/	.
16c#X\LL	.	.
16d\	.	.
16cn\	.	.
16B\	8b 8g/	.
16A\JJ	.	.
16G/LL	8bL 8g/	.
16D/	.	.
16C/	8a 8f#/	.
16BB/	.	.
16AA/	8bJ 8g/	.
16GG/JJ	.	.
=79	=79	=79
16FF#/LL	4cc 4a/	.
16GG/	.	.
16AA/	.	.
16AA#X/	.	.
16BB/	8cc 8a/	.
16C/JJ	.	.
!LO:LB:g=original	!LO:LB:g=original	!
16C#X/LL	4cc 4a/	.
16D/	.	.
16D#X/	.	.
16E/	.	.
16E#X/	8r	.
16F#/JJ	.	.
=80	=80	=80
16G\LL	8bL 8g/	.
16F#\	.	.
16En\	8cc 8a/	.
16D\	.	.
16C\	[8ddJ 8b/	.
16BB\JJ	.	.
16C\LL	8dd]L 8b/	.
16BB\	.	.
16C\	8cc 8a/	.
16D\	.	.
16E\	8bJ 8g/	.
16C#X\JJ	.	.
=81	=81	=81
!LO:TX:a:t=P:problem=mixed beam	!	!
16D\LL	4a 4f#/	.
16DD/	.	.
16D\	.	.
16E\	.	.
16F#\	8a 8f#/	.
16G\JJ	.	.
16A\LL	4a 4f#/	.
16B\	.	.
16c\	.	.
16d\	.	.
16e\	8r	.
16f#\JJ	.	.
=82	=82	=82
*^	*^	*
16g/LL	4G\	[4gg/	[>4b\	.
16f#/	.	.	.	.
16e/	.	.	.	.
16d/	.	.	.	.
16c/	8r	8bb 8gg/]	8b\]	.
16B/JJ	.	.	.	.
16c\LL	8rBByy	4aa/	8gg\L	.
16B\	.	.	.	.
16c\	4rBByy	.	8ee\	.
16c#X\	.	.	.	.
16d\	.	8bb/	8ff#\J	.
16d#X\JJ	.	.	.	.
*v	*v	*	*	*
*	*v	*v	*
=83	=83	=83
16e/LL	4gg 4b 4g/	.
16E/	.	.
16e/	.	.
16d#X/	.	.
16e/	8aa 8cc 8a/	.
16d#/JJ	.	.
!	!LO:S:s=1:note:problem=note-level slur	!
16e\LL	(>4gg 4b 4g/	.
16E\	.	.
16F#\	.	.
16G\	.	.
16A\	8ff# 8dd 8b/)	.
16B\JJ	.	.
=84	=84	=84
*	*^	*
!	!LO:TX:a:t=P:problem=niejednoznaczny zapis łuk/ligatura [przyjęto ligatura]	!	!
16c\LL	[4.ee/	8b\L	.
16B\	.	.	.
16c\	.	8a\	.
16A\	.	.	.
16B\	.	8g\J	.
16c\JJ	.	.	.
!LO:TX:a:t=P:problem=mixed beam	!	!	!
16d\LL	8ee/L]	8f#\L	.
16C#X/	.	.	.
16D/	8dd/	8g\	.
16E/	.	.	.
16F#/	8cc/J	8a\J	.
16D/JJ	.	.	.
=85	=85	=85	=85
16G/LL	8d/L	4.rcyy	.
16D/	.	.	.
16Cn/	8b/	.	.
16BB/	.	.	.
16C/	8aJ 8f#/	.	.
16D/JJ	.	.	.
!	!LO:N:vis=8	!	!
4GG/	4g/	4g\	.
8r	8r	8ryy	.
*	*v	*v	*
!LO:PB:g=original	!LO:PB:g=original	!
=86||;	=86||;	=86||
*k[fnb-e-]	*k[fnb-e-]	*
*M6/8	*M6/8	*
!	!LO:TX:a:t=Var&colon; 4to&colon; Minore	!
!LO:TX:a:t=P:problem=kasownik oktawę wyżej	!LO:TX:a:t=P:problem=kasownik oktawę wyżej	!
8r	8d/	.
=87	=87	=87
*^	*^	*
4rA	4.GG\	4g/	8B-\	.
.	.	.	[>4d\	.
8G/	.	8b-/	.	.
4F#X/	4.D\	4a/	8d\]	.
.	.	.	[4d\	.
8c/	.	8b-/	.	.
=88	=88	=88	=88	=88
4B-/	2.G\	4g/	8d\]	.
.	.	.	[>4d\	.
8c/	.	8a/	.	.
4B-/	.	4g/	8d\]	.
.	.	.	4d\	.
8f 8Bn/	.	8dd/	.	.
=89	=89	=89	=89	=89
!	!LO:TX:a:t=P:problem=niejednoznaczny zapis łuk/ligatura [przyjęto ligatura]	!	!	!
4.e-/	N[<4.c/	4cc/	8r	.
.	.	.	8a\L	.
.	.	[<8ee-/	8g\J	.
8c/LN]	4.D\	8ee-/L]	4.f#X\	.
8d/	.	8dd/	.	.
8e-/J	.	8cc/J	.	.
=90	=90	=90	=90	=90
4d/	4.G\	8cc/L	4g\	.
.	.	8b-/	.	.
8c/	.	8a/J	8f#X\	.
4B-/	4G\	4g/	4g\	.
8r	8ryy	8d/	8d\	.
=91	=91	=91	=91	=91
!	!	!LO:TX:a:t=P:problem=w taktach 91-93 piony w prawej ręce się mijają	!	!
4r	4.GG\	4g/	8B-\	.
.	.	.	4d\	.
8G/	.	8b-/	.	.
4F#X/	4.D\	4a/	8d\	.
.	.	.	4d\	.
8c/	.	8b-/	.	.
=92	=92	=92	=92	=92
4B-/	2.G\	4g/	8d\	.
.	.	.	4d\	.
8c/	.	8a/	.	.
4B-/	.	4g/	8d\	.
.	.	.	4d\	.
8f 8Bn/	.	8dd/	.	.
=93	=93	=93	=93	=93
!	!LO:TX:a:t=P:problem=niejednoznaczny zapis łuk/ligatura [przyjęto ligatura]	!	!	!
4.e-/	N[>4.c\	4cc/	8r	.
.	.	.	8a\L	.
.	.	8ee-/	8g\J	.
8c/LN]	4.D\	8ee-/L	4.f#X\	.
8d/	.	8dd/	.	.
8e-/J	.	8cc/J	.	.
!LO:LB:g=original	!LO:LB:g=original	!LO:LB:g=original	!LO:LB:g=original	!
=94	=94	=94	=94	=94
4d/	4.G\	8cc/L	4g\	.
.	.	8b-/	.	.
8c/	.	8a/J	8f#X\	.
4B-/	4G\	4g/	4g\	.
!	!	!LO:TX:a:t=t	!	!
8r	8ryy	8d/	8d\	.
*	*	*v	*v	*
=95	=95	=95	=95
8r	2.D\	4b- 4g/	.
8c#X/L	.	.	.
8d/J	.	[8b- 8g/	.
8e-/L	.	8b-]L 8g/	.
!LO:SIC:v:o=8c#/	!	!	!
8cn	.	8a 8f#X/	.
8B-/J	.	8b-J 8g/	.
=96	=96	=96	=96
*	*	*^	*
8A/L	2.D\	4ccn 4a/	4rgyy	.
8G#X/	.	.	.	.
8Gn/J	.	8cc 8a/	8rgyy	.
8F#X/L	.	4cc/	8a\L	.
8En/	.	.	8g\	.
8D/J	.	8r	8f#X\J	.
*	*	*v	*v	*
=97	=97	=97	=97
4G/	4G\	8b-L 8g/	.
.	.	8cc 8a/	.
8G/	2rBByy	8ddJ 8b-/	.
8c\L	.	8ddL 8b-/	.
8e-\	.	8cc 8a/	.
8c#X\J	.	8b-J 8g/	.
=98	=98	=98	=98
4d/	8r	4.b- 4.g/	.
.	8D\L	.	.
8reyy	8d\J	.	.
8reyy	8c\L	4a 4f#X/	.
4reyy	8B-X\	.	.
.	8A\J	8d/	.
=99	=99	=99	=99
*	*	*^	*
!	!	!LO:TX:a:t=P:problem=w taktach 99-100 piony w prawej ręce się mijają	!	!
4rG	4.GG\	4g/	8B-\	.
.	.	.	4d\	.
8G/	.	8b-/	.	.
4F#X/	4.D\	4a/	8d\	.
.	.	.	4d\	.
8c/	.	8b-/	.	.
=100	=100	=100	=100	=100
4B-/	2.G\	4g/	8d\	.
.	.	.	4d\	.
8c/	.	8a/	.	.
4B-/	.	4g/	8d\	.
.	.	.	4d\	.
8f 8Bn/	.	8dd/	.	.
!LO:LB:g=original	!LO:LB:g=original	!LO:LB:g=original	!LO:LB:g=original	!
=101	=101	=101	=101	=101
!	!LO:TX:a:t=P:problem=niejednoznaczny zapis łuk/ligatura [przyjęto ligatura]	!	!	!
4.e-/	N[4.c\	4cc/	8r	.
.	.	.	8a\L	.
.	.	8ee-/	8g\J	.
8c/LN]	4.D\	8ee-/L	4.f#X\	.
8d/	.	8dd/	.	.
8e-/J	.	8cc/J	.	.
=102	=102	=102	=102	=102
4d/	4.G\	8cc/L	4g\	.
.	.	8b-/	.	.
8c/	.	8a/J	8f#X\	.
4B-/	4G\	4g/	4g\	.
8r	8ryy	8d/	8rcyy	.
*	*	*v	*v	*
=103	=103	=103	=103
8r	[>2.D\	4b- 4g/	.
8c#X/L	.	.	.
8d/J	.	8b- 8g/	.
8e-/L	.	8b-L 8g/	.
8cn/	.	8a 8f#X/	.
8B-/J	.	8b-J 8g/	.
=104	=104	=104	=104
*	*	*^	*
8A/L	2.D\]	4cc 4a/	4reyy	.
8G#X/	.	.	.	.
8Gn/J	.	[8cc [8a/	8rgyy	.
!	!	!LO:N:vis=4	!	!
8F#X/L	.	4.cc/]	8a\L]	.
8En/	.	.	8g\	.
8D/J	.	.	8f#X\J	.
*	*	*v	*v	*
=105	=105	=105	=105
4G/	4G\	8b-L 8g/	.
.	.	8cc 8a/	.
8G\	2rBByy	[8ddJ [8b-/	.
!LO:N:vis=8.	!	!	!
8c\L	.	8dd]L 8b-/]	.
8e-\	.	8cc 8a/	.
8c#X\J	.	8b-J 8g/	.
=106	=106	=106	=106
*	*	*^	*
4d/	8r	4.b-/	4.g\	.
.	8D\L	.	.	.
8reyy	8d\J	.	.	.
8reyy	8c\L	4a 4f#X/	8reyy	.
4reyy	8B-\	.	4rgyy	.
.	8A\J	8d/	.	.
!LO:LB:g=original	!LO:LB:g=original	!LO:LB:g=original	!LO:LB:g=original	!
=107	=107	=107	=107	=107
!	!	!LO:TX:a:t=P:problem=w taktach 107-108 piony w prawej ręce się mijają	!	!
4rG	4.GG\	4g/	8B-\	.
.	.	.	4d\	.
8G/	.	8b-/	.	.
4F#X/	4.D\	4a/	8d\	.
.	.	.	4d\	.
8c/	.	8b-/	.	.
=108	=108	=108	=108	=108
4B-/	2.G\	4g/	8d\	.
.	.	.	4d\	.
8c/	.	8a/	.	.
4B-/	.	4g/	8d\	.
.	.	.	4d\	.
8f 8Bn/	.	8dd/	.	.
=109	=109	=109	=109	=109
!	!LO:TX:a:t=P:problem=niejednoznaczny zapis łuk/ligatura [przyjęto ligatura]	!	!	!
4.e-/	N[>4.c\	4cc/	8r	.
.	.	.	8a-X\L	.
.	.	[<8ee-/	8g\J	.
8c/LN]	4.D\	8ee-/L]	4.f#X\	.
8d/	.	8dd/	.	.
!	!	!LO:TX:a:t=P:problem=niejednoznaczny zapis łuk/ligatura [przyjęto ligatura]	!	!
8e-/J	.	[<8cc/J	.	.
=	=	=	=	=
!	!LO:TX:a:t=P:problem=niejednoznaczny zapis łuk/ligatura [przyjęto ligatura]	!	!	!
4d/	[4.G\	8cc/L]	4g\	.
.	.	8b-/	.	.
8c/	.	8a/J	8f#X\	.
4B-/	4G\]	4g/	4g\	.
*v	*v	*	*	*
*	*v	*v	*
!LO:PB:g=original	!LO:PB:g=original	!
=110||;	=110||;	=110||
*clefG2	*	*
*k[bnenf#]	*k[bnenf#]	*
*M6/8	*M6/8	*
!	!LO:TX:a:t=Var&colon; 5to&colon; Maiore	!
8r	8dd\	.
=111	=111	=111
*^	*	*
8gL 8d 8B 8G/	4.rFyy	16gg\LL	.
.	.	16dd\	.
16G/L	.	16b\	.
16B/	.	16dd\	.
16d/	.	16gg\	.
16g/JJ	.	16bb\JJ	.
16f#/LL	4.d\	16aa\LL	.
16g/	.	16gg\	.
16a/	.	16ff#\	.
16b/	.	16gg\	.
16cc/	.	16aa\	.
16dd/JJ	.	16bb\JJ	.
=112	=112	=112	=112
16b/LL	4g\	16gg\LL	.
16a/	.	16ff#\	.
16b/	.	16gg\	.
16cc/	.	16aa\	.
16dd/	8r	16bb\	.
16cc/JJ	.	16aa\JJ	.
16b/LL	4rg	16gg\LL	.
16a/	.	16ff#\	.
16b/	.	16gg\	.
16dd/	.	16aa\	.
16b/	8r	16gg\	.
16dd/JJ	.	16ff#\JJ	.
*v	*v	*	*
=113	=113	=113
16cc\LL	16ee\LL	.
16b\	16dd#X\	.
16cc\	16ee\	.
16a\	16ccc\	.
16b\	16aa\	.
16cc\JJ	16gg\JJ	.
16dd\LL	16ff#\LL	.
16cc#X\	16ee#X\	.
16dd\	16ff#\	.
16ee\	16dddn\	.
16ff#\	16ccc\	.
16dd\JJ	16aa\JJ	.
=114	=114	=114
16gg\LL	16bb\LL	.
16ff#\	16aa#X\	.
16gg\	16bb\	.
16ff#\	16aa#\	.
16gg\	16bb\	.
16aan\JJ	16ccc\JJ	.
4bb\	4ddd\	.
!	!LO:TX:a:t=t	!
8r	8dd\	.
=115	=115	=115
*^	*	*
8gL 8d 8B 8G/	4.rFyy	16gg\LL	.
.	.	16dd\	.
16G/L	.	16b\	.
16B/	.	16dd\	.
16d/	.	16gg\	.
16g/JJ	.	16bb\JJ	.
16f#/LL	4.d\	16aa\LL	.
16g/	.	16gg\	.
16a/	.	16ff#\	.
16b/	.	16gg\	.
16cc/	.	16aa\	.
16dd/JJ	.	16bb\JJ	.
!LO:LB:g=original	!LO:LB:g=original	!LO:LB:g=original	!
=116	=116	=116	=116
16b/LL	4g\	16gg\LL	.
16a/	.	16ff#\	.
16b/	.	16gg\	.
16cc/	.	16aa\	.
16dd/	8r	16bb\	.
16cc/JJ	.	16aa\JJ	.
16b/LL	4rg	16gg\LL	.
16a/	.	16ff#\	.
16b/	.	16gg\	.
16dd/	.	16aa\	.
16b/	8r	16gg\	.
16dd/JJ	.	16ff#\JJ	.
*v	*v	*	*
=117	=117	=117
16cc\LL	16ee\LL	.
16b\	16dd#X\	.
16cc\	16ee\	.
16a\	16ccc\	.
16b\	16aa\	.
16cc\JJ	16gg\JJ	.
16dd\LL	16ff#\LL	.
16cc#X\	16ee#X\	.
16dd\	16ff#\	.
16ee\	16dddn\	.
16ff#\	16ccc\	.
16dd\JJ	16aa\JJ	.
=118	=118	=118
8gg\L	16bb\LL	.
.	16ccc\	.
8dd\	16ddd\	.
.	16bb\	.
8ff#J 8dd 8cc\	16ccc\	.
.	16aa\JJ	.
8dd 8b\	16gg\LL	.
.	16ff#\	.
8r	16gg\	.
.	16aa\	.
8r	16bb\	.
.	16ccc\JJ	.
=119	=119	=119
16b/LL	16ddd\LL	.
16d/	16dd\	.
16b/	16ddd\	.
16a/	16ccc\	.
16g#X/	16bb\	.
16a/JJ	16ccc\JJ	.
16b/LL	16ddd\LL	.
16d/	16dd\	.
16cc/	16eee\	.
16b/	16ddd\	.
16a/	16ccc\	.
16g#/JJ	16bb\JJ	.
=120	=120	=120
16a/LL	16ccc\LL	.
16d/	16dd\	.
16a/	16ccc\	.
16g/	16bb\	.
16f#/	16aa\	.
16g/JJ	16bb\JJ	.
16a/LL	16ccc\LL	.
16d/	16dd\	.
16b/	16ddd\	.
16a/	16ccc\	.
16g/	16bb\	.
16f#/JJ	16aa\JJ	.
=121	=121	=121
16g/LL	(16bb\LL	.
16b/	16ddd\	.
16g/	16bb\	.
16f#/	16aa\	.
16e/	16gg\	.
16d#X/JJ	16ff#\JJ	.
16e/LL	16gg\LL	.
16g/	16bb\	.
16e/	16gg\	.
16dn/	16ff#\	.
16c/	16ee\	.
16B/JJ	16dd#X\JJ	.
!LO:LB:g=original	!LO:LB:g=original	!
=122	=122	=122
*clefF4	*	*
16c\LL	16ee\LL	.
16e\	16gg\	.
16c\	16ee\	.
16B\	16ddn\	.
16A\	16cc\	.
16G\JJ	16b\JJ	.
16d\LL	4a 4f#/	.
16D\	.	.
16d\	.	.
16c\	.	.
!	!LO:TX:a:t=t	!
16B\	8dd\	.
16A\JJ	.	.
=123	=123	=123
*clefG2	*	*
*^	*	*
8G/L	4.rFyy	16gg\LL	.
.	.	16dd\	.
16G/L	.	16b\	.
16B/	.	16dd\	.
16d/	.	16gg\	.
16g/JJ	.	16bb\JJ	.
16f#/LL	4.d\	16aa\LL	.
16g/	.	16gg\	.
16a/	.	16ff#\	.
16b/	.	16gg\	.
16cc/	.	16aa\	.
16dd/JJ	.	16bb\JJ	.
=124	=124	=124	=124
16b/LL	4g\	16gg\LL	.
16a/	.	16ff#\	.
16b/	.	16gg\	.
16cc/	.	16aa\	.
16dd/	8r	16bb\	.
16cc/JJ	.	16aa\JJ	.
16b\LL	4.rAyy	16gg\LL	.
16a\	.	16ff#\	.
16b\	.	16gg\	.
16dd\	.	16aa\	.
16b\	.	16gg\	.
16dd\JJ	.	16ff#\JJ	.
*v	*v	*	*
=125	=125	=125
16cc\LL	16ee\LL	.
16b\	16dd#X\	.
16cc\	16ee\	.
16a\	16ccc\	.
16b\	16aa\	.
16cc\JJ	16gg\JJ	.
16dd\LL	16ff#\LL	.
16cc#X\	16ee#X\	.
16dd\	16ff#\	.
16ee\	16dddn\	.
16ff#\	16ccc\	.
16dd\JJ	16aa\JJ)	.
=126	=126	=126
8gg\L	16bb\LL	.
.	16ccc\	.
8dd\	16ddd\	.
.	16bb\	.
8ff#J 8dd 8cc\	16ccc\	.
.	16aa\JJ	.
8dd 8b\	16gg\LL	.
.	16ff#\	.
8r	16gg\	.
.	16aa\	.
8r	16bb\	.
.	16ccc\JJ	.
=127	=127	=127
16b/LL	(16ddd\LL	.
16d/	16dd\	.
16b/	16ddd\	.
16a/	16ccc\	.
16g#X/	16bb\	.
16a/JJ	16ccc\JJ	.
16b/LL	16ddd\LL	.
16d/	16dd\	.
16cc/	16eee\	.
16b/	16ddd\	.
16a/	16ccc\	.
16g#/JJ	16bb\JJ	.
!LO:LB:g=original	!LO:LB:g=original	!
=128	=128	=128
16a/LL	16ccc\LL	.
16d/	16dd\	.
16a/	16ccc\	.
16g/	16bb\	.
16f#/	16aa\	.
16g/JJ	16bb\JJ	.
16a/LL	16ccc\LL	.
16d/	16dd\	.
16b/	16ddd\	.
16a/	16ccc\	.
16g/	16bb\	.
16f#/JJ	16aa\JJ	.
=129	=129	=129
16g/LL	16bb\LL	.
16b/	16ddd\	.
16g/	16bb\	.
16f#/	16aa\	.
16e/	16gg\	.
16d#X/JJ	16ff#\JJ	.
16e/LL	16gg\LL	.
16g/	16bb\	.
16e/	16gg\	.
16dn/	16ff#\	.
16c/	16ee\	.
16B/JJ	16dd#X\JJ	.
*clefF4	*	*
=130	=130	=130
16c\LL	16ee\LL	.
16e\	16gg\	.
16c\	16ee\	.
16B\	16ddn\	.
16A\	16cc\	.
16G\JJ	16b\JJ	.
16d\LL	4a 4f#/	.
16D\	.	.
16d\	.	.
16c\	.	.
!	!LO:TX:a:t=t	!
16B\	8dd\)	.
16A\JJ	.	.
*clefG2	*	*
=131	=131	=131
*^	*	*
8G/L	4.rFyy	16gg\LL	.
.	.	16dd\	.
16G/L	.	16b\	.
16B/	.	16dd\	.
16d/	.	16gg\	.
16g/JJ	.	16bb\JJ	.
16f#/LL	4.d\	16aa\LL	.
16g/	.	16gg\	.
16a/	.	16ff#\	.
16b/	.	16gg\	.
16cc/	.	16aa\	.
16dd/JJ	.	16bb\JJ	.
=132	=132	=132	=132
16b/LL	4g\	16gg\LL	.
16a/	.	16ff#\	.
16b/	.	16gg\	.
16cc/	.	16aa\	.
16dd/	8r	16bb\	.
16cc/JJ	.	16aa\JJ	.
16b\LL	4.rAyy	16gg\LL	.
16a\	.	16ff#\	.
16b\	.	16gg\	.
16dd\	.	16aa\	.
16b\	.	16gg\	.
16dd\JJ	.	16ff#\JJ	.
*v	*v	*	*
!LO:PB:g=original	!LO:PB:g=original	!
=133	=133	=133
16cc\LL	16ee\LL	.
16b\	16dd#X\	.
16cc\	16ee\	.
16a\	16ccc\	.
16b\	16aa\	.
16cc\JJ	16gg\JJ	.
16dd\LL	16ff#\LL	.
16cc#X\	16ee#X\	.
16dd\	16ff#\	.
16ee\	16ddd\	.
16ff#\	16ccc\	.
16dd\JJ	16aa\JJ	.
=	=	=
8gg\L	16bb\LL	.
.	16ccc\	.
8dd\	16ddd\	.
.	16bb\	.
8ff#J 8dd 8cc\	16ccc\	.
.	16aa\JJ	.
8dd 8b\	8gg\	.
8r	8r	.
!LO:LB:g=original	!LO:LB:g=original	!
=134||;	=134||;	=134||
*k[f#]	*k[f#]	*
*M6/8	*M6/8	*
!	!LO:TX:a:t=Var&colon; 6to&colon;	!
!	!LO:TX:a:t=t	!
8r	8dd\	.
=135	=135	=135
*	*^	*
!	!	!LO:TX:a:t=P:problem=w taktach 135-142 piony w prawej ręce się mijają	!
4g 4d 4B 4G/	4gg/	8b\	.
.	.	4dd\	.
8ddd\	8bb/	.	.
4ccc\	4aa/	8cc\	.
.	.	4dd\	.
8ddd\	8bb/	.	.
=136	=136	=136	=136
4bb\	4gg/	8b\	.
.	.	4dd\	.
8ccc\	8aa/	.	.
4bb\	4gg/	8dd\	.
.	.	4dd\	.
8ddd\	8ff#/	.	.
=137	=137	=137	=137
4ccc\	4ee/	8dd\	.
.	.	4g\	.
8bb\	8dd/	.	.
4aa\	4cc/	8g\	.
.	.	4g\	.
8bb\	8dd/	.	.
=138	=138	=138	=138
4gg\	4b/	8g\	.
.	.	4g\	.
16qqbb/	16qqb/	.	.
8aa\	8cc/	.	.
4gg\	4b/	4g\	.
!	!LO:TX:a:t=t	!	!
8r	8dd/	8ryy	.
=139	=139	=139	=139
4g 4d 4B 4G/	4gg/	8b\	.
.	.	4dd\	.
8ddd\	8bb/	.	.
4ccc\	4aa/	8cc\	.
.	.	4dd\	.
8ddd\	8bb/	.	.
=140	=140	=140	=140
4bb\	4gg/	8b\	.
.	.	4dd\	.
8ccc\	8aa/	.	.
4bb\	4gg/	8dd\	.
.	.	4dd\	.
8ddd\	8ff#/	.	.
!LO:LB:g=original	!LO:LB:g=original	!LO:LB:g=original	!
=141	=141	=141	=141
4ccc\	4ee/	8dd\	.
.	.	4g\	.
8bb\	8dd/	.	.
4aa\	4cc/	8g\	.
.	.	4g\	.
8bb\	8dd/	.	.
=142	=142	=142	=142
4gg\	4b/	8g\	.
.	.	4g\	.
16qqbb/	16qqdd/	.	.
8aa\	8cc/	.	.
4gg\	4b/	4g\	.
!	!LO:TX:a:t=t	!	!
8r	8dd\	8ryy	.
*	*v	*v	*
*clefF4	*	*
=143	=143	=143
*	*^	*
*	*	*^	*
*	*	*2\right	*	*
!	!	!LO:N:vis=2	!	!
8D/	4.ddd/	2.dd\	8rc	.
[4d\	.	.	8rc	.
.	.	.	8b\	.
4.d\]	8ccc/L	.	8a\L	.
.	8bb/	.	8g#X\	.
.	8ccc/J	.	8a\J	.
*	*	*v	*v	*
=144	=144	=144	=144
*tremolo	*	*	*
8d\L	8dddL 8dd/	8b\L	.
8d\	8eee/	8cc\	.
8d\	8ccc/J	8a\J	.
*	*	*^	*
8d\	4aa/	8aa\L	8f#\L	.
8d\	.	8gg\	8e\	.
8d\J	8ccc/	8ff#\J	8d\J	.
*Xtremolo	*	*	*	*
*	*v	*v	*v	*
*clefG2	*	*
=145	=145	=145
*^	*^	*
!	!	!	!LO:N:vis=4	!
8g/L	[4.d\	8bb/L	4.dd\	.
8a/	.	8aa/	.	.
8b-X/J	.	8gg/J	.	.
8bn/L	4.d\_	8gg\L	8ryy	.
8cc/	.	8ee\	4ryy	.
8cc#X/J	.	8aa\J	.	.
*	*	*v	*v	*
=146	=146	=146	=146
8dd/L	4.d\]	8gg\L	.
8a/	.	8ff#\	.
8g/J	.	8ee\J	.
8f#/	8d\	8dd\L	.
8r	8ryy	8ee 8cc#X\	.
!	!	!LO:SIC:v:n=1:o=8eeJ 8ccn\	!
8r	8ryy	8ff#	.
*v	*v	*	*
=147	=147	=147
*	*^	*
!	!	!LO:TX:a:t=P:problem=w taktach 147-150 piony w prawej ręce się mijają	!
4g 4d 4B 4G/	4gg/	8b\	.
.	.	4dd\	.
8ddd\	8bb/	.	.
4ccc\	4aa/	8cc\	.
.	.	4dd\	.
8ddd\	8bb/	.	.
!LO:LB:g=original	!LO:LB:g=original	!LO:LB:g=original	!
=148	=148	=148	=148
4bb\	4gg/	8b\	.
.	.	4dd\	.
8ccc\	8aa/	.	.
4bb\	4gg/	8dd\	.
.	.	4dd\	.
8ddd\	8ff#/	.	.
=149	=149	=149	=149
!LO:N:vis=4.	!	!	!
4ccc\	4ee/	8dd\	.
.	.	4g\	.
8bb\	8dd/	.	.
4aa\	4cc/	8g\	.
.	.	4g\	.
8bb\	8dd/	.	.
=150	=150	=150	=150
4gg\	4b/	8g\	.
.	.	4g\	.
16qqbb/	16qqb/	.	.
8aa\	8cc/	.	.
4gg\	4b/	4g\	.
!	!LO:TX:a:t=t	!	!
8r	8dd\	8ryy	.
*	*v	*v	*
=151	=151	=151
*clefF4	*	*
*	*^	*
*	*	*^	*
8D/	4.ddd/	2.dd\	8rc	.
4d\	.	.	8rc	.
.	.	.	8b\	.
N[4.d\	8ccc/L	.	8a\L	.
.	8bb/	.	8g#X\	.
.	8ccc/J	.	8a\J	.
*	*	*v	*v	*
=152	=152	=152	=152
*tremolo	*	*	*
8d\LN]	8dddL 8dd/	8b\L	.
8d\	8eee/	8cc\	.
8d\	8ccc/J	8a\J	.
*	*	*^	*
8d\	4aa/	8aa\L	8f#\L	.
8d\	.	8gg\	8e\	.
8d\J	8ccc/	8ff#\J	8d\J	.
*Xtremolo	*	*	*	*
*	*v	*v	*v	*
*clefG2	*	*
=153	=153	=153
*^	*^	*
8g/L	[4.d\	8bb/L	4.dd\	.
8a/	.	8aa/	.	.
8b-X/J	.	8gg/J	.	.
8bn/L	4.d\_	8gg\L	8reyy	.
8cc/	.	8ee\	4reyy	.
8cc#X/J	.	8aa\J	.	.
*	*	*v	*v	*
=154	=154	=154	=154
8dd/L	4.d\]	8gg\L	.
8a/	.	8ff#\	.
8g/J	.	8ee\J	.
8f#/	8d\	8dd\L	.
8r	8ryy	8ee 8cc#X\	.
8r	8ryy	8ff#J 8ccn\	.
*v	*v	*	*
=155	=155	=155
*	*^	*
!	!	!LO:TX:a:t=P:problem=w taktach 155-158 piony w prawej ręce się mijają	!
4g 4d 4B 4G/	4gg/	8b\	.
.	.	4dd\	.
8ddd\	8bb/	.	.
4ccc\	4aa/	8cc\	.
.	.	4dd\	.
8ddd\	8bb/	.	.
=156	=156	=156	=156
4bb\	4gg/	8b\	.
.	.	4dd\	.
8ccc\	8aa/	.	.
4bb\	4gg/	8dd\	.
.	.	4dd\	.
8ddd\	8ff#/	.	.
=157	=157	=157	=157
4ccc\	4ee/	8dd\	.
.	.	4g\	.
8bb\	8dd/	.	.
4aa\	4cc/	8g\	.
.	.	4g\	.
8bb\	8dd/	.	.
=158	=158	=158	=158
4gg\	4b/	8g\	.
.	.	4g\	.
16qqbb/	16qqdd/	.	.
8aa\	8cc/	.	.
4gg\	4b/	4g\	.
*	*v	*v	*
8ryy	8r	.
!LO:PB:g=original	!LO:PB:g=original	!
=159||;	=159||;	=159||
*clefF4	*	*
*k[f#]	*k[f#]	*
*M6/8	*M6/8	*
!	!LO:TX:a:t=Var&colon; 7&colon;	!
!	!LO:TX:b:i:t=ſempre Legato	!
!	!LO:TX:a:t=t	!
8r	16dd\LL	.
.	32cc#X\L	.
.	32dd\JJJ	.
=160	=160	=160
*	*^	*
8G\L	16bb/LL	16gg\LL	.
.	16aa#X/J	16ff#\	.
8d\	8bb/	16gg\	.
.	.	16dd\	.
8d\J	8ddd/J	16bb\	.
.	.	16dd\JJ	.
8D\L	16ccc/LL	16aan\LL	.
.	16bb/J	16gg#X\	.
8d\	8ccc/	16aa\	.
.	.	16dd\	.
8d\J	8ddd/J	16bb\	.
.	.	16dd\JJ	.
=161	=161	=161	=161
!LO:TX:a:t=P:problem=mixed beam	!	!	!
8GG/L	16bb/LL	16gg\LL	.
.	16aa#X/J	16ff#\	.
8d\	8bb/	16gg\	.
.	.	16dd\	.
8d\J	8ccc/J	16aan\	.
.	.	16dd\JJ	.
!LO:TX:a:t=P:problem=mixed beam	!	!	!
8GG/L	16bb/LL	16gg\LL	.
.	16aa#X/J	16ff#\	.
8d\	8bb/	16gg\	.
.	.	16dd\	.
8d\J	8aan/J	16ff#\	.
.	.	16dd\JJ	.
=162	=162	=162	=162
!LO:TX:a:t=P:problem=mixed beam	!	!	!
8C/L	16gg/LL	16ee\LL	.
.	16ff#/J	16dd#X\	.
8e\	8gg/	16ee\	.
.	.	16g\	.
8e\J	8ee/J	16cc\	.
.	.	16g\JJ	.
!LO:TX:a:t=P:problem=mixed beam	!	!	!
8DD/L	16a/LL	16f#\LL	.
.	16g#X/J	16e#X\	.
8D\	8a/	16f#\	.
.	.	16dn\	.
8D\J	8ddn/J	16f#\	.
.	.	16d\JJ	.
=163	=163	=163	=163
*^	*	*	*
8r	4GG\	8b/L	16g\LL	.
.	.	.	16d\	.
8G\L	.	8g/	16B\	.
.	.	.	16d\	.
8F#J 8D\	4rBByy	8a/J	16c\	.
.	.	.	16d\JJ	.
8G 8GG\	.	8g/	8B\	.
8r	8ryy	8r	8ryy	.
!	!	!LO:TX:a:t=t	!	!
8r	8ryy	16dd\LL	8ryy	.
.	.	32cc#X\L	.	.
.	.	32dd\JJJ	.	.
*v	*v	*	*	*
!LO:LB:g=original	!LO:LB:g=original	!LO:LB:g=original	!
=164	=164	=164	=164
8G\L	16bb/LL	16gg\LL	.
.	16aa#X/J	16ff#\	.
8d\	8bb/	16gg\	.
.	.	16dd\	.
8d\J	8ddd/J	16bb\	.
.	.	16dd\JJ	.
8D\L	16ccc/LL	16aan\LL	.
.	16bb/J	16gg#X\	.
8d\	8ccc/	16aa\	.
.	.	16dd\	.
8d\J	8ddd/J	16bb\	.
.	.	16dd\JJ	.
=165	=165	=165	=165
!LO:TX:a:t=P:problem=mixed beam	!	!	!
8GG/L	16bb/LL	16gg\LL	.
.	16aa#X/J	16ff#\	.
8d\	8bb/	16gg\	.
.	.	16dd\	.
8d\J	8ccc/J	16aan\	.
.	.	16dd\JJ	.
!LO:TX:a:t=P:problem=mixed beam	!	!	!
8GG/L	16bb/LL	16gg\LL	.
.	16aa#X/J	16ff#\	.
8d\	8bb/	16gg\	.
.	.	16dd\	.
!	!LO:SIC:v:o=8aa#/J	!	!
8d\J	8aan	16ff#\	.
.	.	16dd\JJ	.
=166	=166	=166	=166
!LO:TX:a:t=P:problem=mixed beam	!	!	!
8C/L	16gg/LL	16ee\LL	.
.	16ff#/J	16dd#X\	.
8e\	8gg/	16ee\	.
.	.	16g\	.
8e\J	8ee/J	16cc\	.
.	.	16g\JJ	.
!LO:TX:a:t=P:problem=mixed beam	!	!	!
8DD/L	16a/LL	16f#\LL	.
.	16g#X/J	16e#X\	.
8D\	8a/	16f#\	.
.	.	16dn\	.
8D\J	8ddn/J	16f#\	.
.	.	16d\JJ	.
=167	=167	=167	=167
*^	*	*	*
8r	4GG\	8b/L	16g\LL	.
.	.	.	16d\	.
8G\L	.	8g/	16B\	.
.	.	.	16d\	.
8F#J 8D\	4rBByy	8a/J	16c\	.
.	.	.	16d\JJ	.
8G 8GG\	.	8g/	8B\	.
*	*	*v	*v	*
8r	8ryy	8r	.
!	!	!LO:TX:a:t=t	!
8r	8ryy	16dd\LL	.
.	.	32cc#X\L	.
.	.	32dd\JJJ	.
*v	*v	*	*
!LO:LB:g=original	!LO:LB:g=original	!
=168	=168	=168
*	*^	*
4D 4DD/	4gg/	16b\LL	.
.	.	16dd\	.
.	.	16b\	.
.	.	16dd\	.
*clefG2	*	*	*
8bb\	8gg/	16b\	.
.	.	16dd\JJ	.
8bb\L	8gg/L	16b\LL	.
.	.	16dd\	.
8aa\	8ff#/	16a\	.
.	.	16dd\	.
8bb\J	8gg/J	16b\	.
.	.	16dd\JJ	.
=169	=169	=169	=169
*^	*	*	*
8ccc\	8ryy	8aa/L	16cc\LL	.
.	.	.	16dd\	.
8r	8ryy	8ff#/	16ff#\	.
.	.	.	16dd\	.
8r	8ryy	8gg/J	16ee\	.
.	.	.	16dd\JJ	.
*clefF4	*	*	*	*
8cL 8A/	4.D\	8aa/L	16ff#\LL	.
.	.	.	16dd\	.
8B 8G/	.	8bb/	16gg\	.
.	.	.	16dd\	.
8AJ 8F#/	.	8ccc/J	16aa\	.
.	.	.	16dd\JJ	.
=170	=170	=170	=170	=170
4B/	4G\	4bb/	16gg\LL	.
.	.	.	16dd\	.
.	.	.	16cc#X\	.
.	.	.	16dd\	.
*clefG2	*	*	*	*
8b/	2ryy	8ddd/	16gg\	.
.	.	.	16dd\JJ	.
8b/L	.	8ddd/L	16gg\LL	.
.	.	.	16dd\	.
8a/	.	8cccn/	16ff#\	.
.	.	.	16dd\	.
8g/J	.	8bb/J	16gg\	.
.	.	.	16dd\JJ	.
=171	=171	=171	=171	=171
8f#/L	8reyy	8aa/L	16aa\LL	.
.	.	.	16dd\	.
8f#/	4A\	8ddd/	16ddd\	.
.	.	.	16aa\	.
8e/J	.	8ccc#X/J	16ccc#\	.
.	.	.	16gg\JJ	.
16d/LL	8rcyy	8ddd/	8ff#\	.
16e/	.	.	.	.
16d/	4rcyy	8r	8ryy	.
16c/	.	.	.	.
!	!	!LO:TX:a:t=t	!	!
16B/	.	16dd\LL	8ryy	.
16A/JJ	.	32cc#X\L	.	.
.	.	32dd\JJJ	.	.
*v	*v	*	*	*
=172	=172	=172	=172
*clefF4	*	*	*
8G\L	16bb/LL	16gg\LL	.
!	!LO:SIC:v:n=1:o=16aa/J	!	!
.	16aa#	16ff#\	.
8d\	8bb/	16gg\	.
.	.	16dd\	.
8d\J	8ddd/J	16bb\	.
.	.	16dd\JJ	.
!LO:LB:g=original	!LO:LB:g=original	!LO:LB:g=original	!
!LO:TX:a:t=P:problem=mixed beam	!LO:SIC:v:n=2:o=16ccc/LL	!	!
8D/L	16aan	16aa\LL	.
.	16bb/J	16gg#X\	.
8d\	8ccc/	16aan\	.
.	.	16dd\	.
8d\J	8ddd/J	16bb\	.
.	.	16dd\JJ	.
=173	=173	=173	=173
!LO:TX:a:t=P:problem=mixed beam	!	!	!
8GG/L	16bb/LL	16gg\LL	.
.	16aa#X/J	16ff#\	.
8d\	8bb/	16gg\	.
.	.	16dd\	.
8d\J	8ccc/J	16aan\	.
.	.	16dd\JJ	.
!LO:TX:a:t=P:problem=mixed beam	!	!	!
8GG/L	16bb/LL	16gg\LL	.
.	16aa#X/J	16ff#\	.
8d\	8bb/	16gg\	.
.	.	16dd\	.
8d\J	8aan/J	16ff#\	.
.	.	16dd\JJ	.
=174	=174	=174	=174
!LO:TX:a:t=P:problem=mixed beam	!	!	!
8C/L	16gg/LL	16ee\LL	.
.	16ff#/J	16dd#X\	.
8e\	8gg/	16ee\	.
.	.	16g\	.
8e\J	8ee/J	16cc\	.
.	.	16g\JJ	.
!LO:TX:a:t=P:problem=mixed beam	!	!	!
8DD/L	16a/LL	16f#\LL	.
.	16g#X/J	16e#X\	.
8D\	8a/	16f#\	.
.	.	16dn\	.
8D\J	8ddn/J	16f#\	.
.	.	16d\JJ	.
=175	=175	=175	=175
*^	*	*	*
8r	4GG\	8b/L	16g\LL	.
.	.	.	16d\	.
8G\L	.	8g/	16B\	.
.	.	.	16d\	.
8F#J 8D\	4rBByy	8a/J	16c\	.
.	.	.	16d\JJ	.
8G 8GG\	.	8g/	8B\	.
*	*	*v	*v	*
8r	8ryy	8r	.
!	!	!LO:TX:a:t=t	!
8r	8ryy	16dd\LL	.
.	.	32cc#X\L	.
.	.	32dd\JJJ	.
*v	*v	*	*
=176	=176	=176
*	*^	*
4D 4DD/	4gg/	16b\LL	.
.	.	16dd\	.
.	.	16b\	.
.	.	16dd\	.
*clefG2	*	*	*
8bb\	8gg/	16b\	.
.	.	16dd\JJ	.
8bb\L	8gg/L	16b\LL	.
.	.	16dd\	.
8aa\	8ff#/	16a\	.
.	.	16dd\	.
8bb\J	8gg/J	16b\	.
.	.	16dd\JJ	.
!LO:PB:g=original	!LO:PB:g=original	!LO:PB:g=original	!
=177	=177	=177	=177
*^	*	*	*
4ccc\	4ryy	8cc/L	16cc\LL	.
.	.	.	16dd\	.
.	.	8ff#/	16ff#\	.
.	.	.	16dd\	.
8r	8ryy	8gg/J	16ee\	.
.	.	.	16dd\JJ	.
*clefF4	*	*	*	*
8cL 8A/	4.D\	8aa/L	16ff#\LL	.
.	.	.	16dd\	.
8B 8G/	.	8bb/	16gg\	.
.	.	.	16dd\	.
8AJ 8F#/	.	8ccc/J	16aa\	.
.	.	.	16dd\JJ	.
=178	=178	=178	=178	=178
4B/	4G\	4bb/	16gg\LL	.
.	.	.	16dd\	.
.	.	.	16cc#X\	.
.	.	.	16dd\	.
*clefG2	*	*	*	*
8b/	2ryy	8ddd/	16gg\	.
.	.	.	16dd\JJ	.
8b/L	.	8ddd/L	16gg\LL	.
.	.	.	16dd\	.
8a/	.	8cccn/	16ff#\	.
.	.	.	16dd\	.
8g/J	.	8bb/J	16gg\	.
.	.	.	16dd\JJ	.
=179	=179	=179	=179	=179
8f#/L	8reyy	8aa/L	16aa\LL	.
.	.	.	16dd\	.
8f#/	4A\	8ddd/	16ddd\	.
.	.	.	16aa\	.
8e/J	.	8ccc#X/J	16ccc#\	.
.	.	.	16gg\JJ	.
16d/LL	8rcyy	8ddd/	8ff#\	.
16e/	.	.	.	.
16d/	4rcyy	8r	8ryy	.
16cn/	.	.	.	.
!	!	!LO:TX:a:t=t	!	!
16B/	.	16dd\LL	8ryy	.
16A/JJ	.	32cc#X\L	.	.
.	.	32dd\JJJ	.	.
*v	*v	*	*	*
*	*v	*v	*
=180	=180	=180
*clefF4	*	*
8G\L	16bbLL 16gg\	.
.	16aa#X 16ff#\	.
8d\	16bb 16gg\	.
.	16dd\	.
8d\J	16ddd 16bb\	.
.	16dd\JJ	.
!LO:TX:a:t=P:problem=mixed beam	!	!
8D/L	16cccLL 16aan\	.
.	16bb 16gg#X\	.
8d\	16ccc 16aa\	.
.	16dd\	.
8d\J	16ddd 16bb\	.
.	16dd\JJ	.
!LO:LB:g=original	!LO:LB:g=original	!
=181	=181	=181
*	*^	*
!LO:TX:a:t=P:problem=mixed beam	!	!	!
8GG/L	16bbLL 16gg\	4.ryy	.
.	16aa#X 16ff#\	.	.
8d\	16bb 16gg\	.	.
.	16dd\	.	.
!	!LO:SIC:v:n=2:o=16ccc 16aa#\	!	!
8d\J	16aan	.	.
.	16dd\JJ	.	.
!LO:TX:a:t=P:problem=mixed beam	!	!	!
8GG/L	16bb/LL	16gg\LL	.
.	16aa#X/J	16ff#\	.
8d\	8bb/	16gg\	.
.	.	16dd\	.
8d\J	8aan/J	16ff#\	.
.	.	16dd\JJ	.
=182	=182	=182	=182
!LO:TX:a:t=P:problem=mixed beam	!	!	!
8C/L	16gg/LL	16ee\LL	.
.	16ff#/J	16dd#X\	.
8e\	8gg/	16ee\	.
.	.	16g\	.
8e\J	8ee/J	16cc\	.
.	.	16g\JJ	.
!LO:TX:a:t=P:problem=mixed beam	!	!	!
8DD/L	16a/LL	16f#\LL	.
.	16g#X/J	16e#X\	.
8D\	8a/	16f#\	.
.	.	16dn\	.
8D\J	8ddn/J	16f#\	.
.	.	16d\JJ	.
=183	=183	=183	=183
!	!	!	!LO:DY:rj:t=f&colon;
8GG/L	8b/	8g\	f
16GG/L	16G/LL	8rFyy	.
16AA/	16A/	.	.
16BB/	16B/	2rAyy	.
16C/JJ	16c/JJ	.	.
16D/LL	16d/LL	.	.
16C#X/	16c#X/	.	.
16D/	16d/	.	.
16C#/	16c#/	.	.
16D/	16d/	.	.
16C#/JJ	16c#/JJ	.	.
*	*v	*v	*
=184	=184	=184
4D\	16d/LL	.
.	16c#X/	.
.	16d/	.
.	16e/	.
8r	16f#/	.
.	16g/JJ	.
4r	16a\LL	.
.	16b\	.
.	16ccn\	.
.	16dd\	.
*clefG2	*	*
8cc 8a 8d/	16ee\	.
.	16ff#\JJ	.
!LO:LB:g=original	!LO:LB:g=original	!
=185	=185	=185
4b 4g/	16gg\LL	.
.	16dd\	.
.	16cc#X\	.
.	16dd\	.
8cc 8a 8d/	16ff#\	.
.	16ddd\JJ	.
4b 4g/	16ccc\LL	.
.	16bb\	.
.	16aa\	.
.	16gg\	.
8cc 8a 8d/	16ff#\	.
.	16ddd\JJ	.
=186	=186	=186
4b 4g/	16ccc\LL	.
.	16bb\	.
.	16aa\	.
.	16gg\	.
8dd 8b 8e/	16gg#X\	.
.	16eee\JJ	.
4cc 4a/	16ddd\LL	.
.	16ccc\	.
.	16bb\	.
.	16aa\	.
8dd 8b 8e/	16gg#X\	.
.	16eee\JJ	.
=187	=187	=187
4cc 4a\	16ddd\LL	.
.	16ccc\	.
.	16bb\	.
.	16aa\	.
8r	16gg#X\	.
.	16aa\JJ	.
4r	16bb-X\LL	.
.	16aa\	.
.	16bbn\	.
.	16aa\	.
8r	16ccc\	.
.	16aa\JJ	.
=188	=188	=188
4cc 4a 4d/	16ggn\LL	.
.	16ff#\	.
.	16ccc\	.
.	16aa\	.
8r	16ff#\	.
.	16dd\JJ	.
!LO:LB:g=original	!LO:LB:g=original	!
4r	16cc/LL	.
.	16a/	.
.	16f#/	.
.	16d/	.
8r	16c/	.
.	16A/JJ	.
=189	=189	=189
*clefF4	*	*
4C 4AA 4DD\	4.F#<;/	.
8rGG	.	.
4rGG	4rG<	.
8r	8d</	.
=190	=190	=190
*^	*	*
4B/	4.G\	4g/	.
8d/	.	8b/	.
4c/	4.D\	4a/	.
8d/	.	8b/	.
=191	=191	=191	=191
*	*	*^	*
4B/	4.G\	4g/	4reyy	.
8c/	.	8a/	8rgyy	.
4B/	4G\	4g/	4reyy	.
8d/	8G#X\	8b/	8fn\	.
*	*	*v	*v	*
=192	=192	=192	=192
4c/	4A\	4cc 4e/	.
8r	8ryy	8r	.
4d 4A 4F# 4D\	4ryy	4ff# 4dd 4cc 4a 4f#/	.
8r	8ryy	8r	.
*v	*v	*	*
=193	=193	=193
4G 4D 4BB 4GG/	4gg 4dd 4b 4g/	.
8r	8r	.
4r	4r	.
==;	==;	==
*-	*-	*-
!!!system-decoration: {s1,s2}
!!!RDF**kern: > = above
!!!RDF**kern: < = below
!!!RDF**kern: N = linked
!!!ENC: Marta Lawrence
!!!END: 2020-11-15
!!!ENC: Andrzej Kubiczek
!!!END: 2020-06-12
